X: 307
T: The woeful widow
C: anon.
O: Ireland
B: Francis O'Neill: "The Dance Music of Ireland" (1907) no. 307
R: Double jig
Z: Transcribed by Frank Nordberg - http://www.musicaviva.com
F: http://www.musicaviva.com/abc/tunes/ireland/oneill-1001/oneill-1001-030
7.abc
m: ~n3 = no/4n/m/4n
M: 6/8
L: 1/8
K: G
d|efe edB|dBA BGE|GAG BdB|BAA ABd|efe edB|dBA BGE|GFG BdB|AGG G2:|
|:A|GBd ~g3|agf ({a}g2)e|gfe edB|dBA BGE|GBd ~g3|agf ({a}g2)e|dBA BGE|DGG
 G2:|
W:
W:
W: From Musica Viva - http://www.musicaviva.com
W: the Internet center for free sheet music downloads.


